img/paypal.svg

<svg width="28" height="32" viewBox="0 0 28 32" fill="none" xmlns="http://www.w3.org/2000/svg">
<path d="M23.4363 2.3975C21.9598 0.714647 19.2909 -0.00683594 15.8765 -0.00683594H5.9671C5.62929 -0.00682348 5.30256 0.113698 5.04565 0.333061C4.78875 0.552423 4.61852 0.856236 4.56557 1.18988L0.439479 27.3586C0.357466 27.8746 0.757042 28.3418 1.28006 28.3418H7.39779L8.93421 18.5966L8.88653 18.9018C8.99598 18.2129 9.58513 17.7048 10.2828 17.7048H13.1899C18.901 17.7048 23.3727 15.3851 24.679 8.67481C24.7179 8.47634 24.7515 8.28318 24.7805 8.09446C24.6156 8.00715 24.6156 8.00715 24.7805 8.09446C25.1694 5.61425 24.7778 3.92598 23.4363 2.3975Z" fill="#27346A"/>
<path d="M11.2751 7.201C11.4423 7.12137 11.6253 7.0801 11.8105 7.08021H19.5793C20.4993 7.08021 21.3573 7.14007 22.1414 7.26628C22.3608 7.30126 22.5791 7.34303 22.7959 7.39153C23.1033 7.45933 23.407 7.54234 23.7061 7.64021C24.0916 7.76895 24.4506 7.91889 24.7806 8.09446C25.1694 5.6133 24.7778 3.92598 23.4363 2.3975C21.9589 0.714647 19.2909 -0.00683594 15.8765 -0.00683594H5.96626C5.26851 -0.00683594 4.67492 0.501137 4.56557 1.18988L0.43948 27.3576C0.357467 27.8745 0.757043 28.3411 1.27921 28.3411H7.39779L10.5854 8.1271C10.6167 7.92841 10.6959 7.74031 10.816 7.57899C10.9362 7.41768 11.0937 7.28795 11.2751 7.201Z" fill="#27346A"/>
<path d="M24.6798 8.67507C23.3735 15.3844 18.9019 17.7051 13.1907 17.7051H10.2827C9.58507 17.7051 8.99582 18.2132 8.88743 18.902L6.97602 31.0192C6.9046 31.4707 7.25383 31.88 7.71074 31.88H12.8678C13.1632 31.8799 13.449 31.7744 13.6735 31.5825C13.8981 31.3906 14.0469 31.1249 14.0931 30.833L14.1433 30.5703L15.1152 24.4101L15.1779 24.0697C15.224 23.7779 15.3727 23.5122 15.5973 23.3203C15.8219 23.1284 16.1076 23.0229 16.403 23.0228H17.1748C22.1705 23.0228 26.0822 20.9932 27.2253 15.1235C27.7024 12.6705 27.4556 10.6225 26.1934 9.184C25.8106 8.74828 25.3351 8.38844 24.7813 8.09473C24.7513 8.2844 24.7188 8.4766 24.6798 8.67507Z" fill="#2790C3"/>
<path d="M23.4134 7.54937C23.2098 7.4899 23.0042 7.43725 22.797 7.3915C22.5801 7.3438 22.3618 7.30231 22.1425 7.2671C21.3575 7.14005 20.5001 7.08008 19.5793 7.08008H11.8114C11.6261 7.07966 11.443 7.12128 11.276 7.20183C11.0945 7.2885 10.9367 7.41814 10.8165 7.57951C10.6963 7.74088 10.6173 7.92911 10.5862 8.12792L8.93516 18.5966L8.88748 18.9017C8.99609 18.2129 9.58523 17.7048 10.283 17.7048H13.1909C18.902 17.7048 23.3738 15.3851 24.6801 8.67478C24.7189 8.47631 24.7515 8.284 24.7815 8.09444C24.4507 7.91981 24.0926 7.76893 23.7071 7.64103C23.6098 7.60878 23.5118 7.57822 23.4134 7.54937Z" fill="#1F264F"/>
</svg>

<svg width="28" height="32" fill="none" xmlns="http://www.w3.org/2000/svg"><path d="M23.436 2.397C21.96.716 19.291-.006 15.876-.006H5.967A1.42 1.42 0 0 0 4.566 1.19L.439 27.359a.85.85 0 0 0 .841.983h6.118l1.536-9.745-.047.305a1.414 1.414 0 0 1 1.396-1.197h2.907c5.711 0 10.183-2.32 11.489-9.03.039-.199.073-.392.102-.58-.165-.088-.165-.088 0 0 .388-2.48-.003-4.169-1.345-5.698Z" fill="#27346A"/><path d="M11.275 7.201c.167-.08.35-.12.535-.12h7.77c.92 0 1.777.06 2.561.185.22.035.438.077.655.126.307.067.611.15.91.248.386.129.745.279 1.075.454.388-2.48-.003-4.168-1.345-5.696C21.96.714 19.291-.007 15.876-.007h-9.91c-.697 0-1.291.508-1.4 1.197L.439 27.358a.85.85 0 0 0 .84.983h6.119l3.187-20.214a1.241 1.241 0 0 1 .69-.926Z" fill="#27346A"/><path d="M24.68 8.675c-1.306 6.71-5.778 9.03-11.49 9.03h-2.907c-.698 0-1.287.508-1.396 1.197L6.976 31.019a.745.745 0 0 0 .735.861h5.157a1.24 1.24 0 0 0 1.225-1.047l.05-.263.972-6.16.063-.34a1.24 1.24 0 0 1 1.225-1.047h.772c4.995 0 8.907-2.03 10.05-7.9.477-2.452.23-4.5-1.032-5.939a4.927 4.927 0 0 0-1.412-1.09c-.03.19-.062.383-.101.581Z" fill="#2790C3"/><path d="M23.413 7.55a9.517 9.517 0 0 0-.616-.159c-.217-.047-.435-.089-.655-.124a16.122 16.122 0 0 0-2.563-.187h-7.768a1.238 1.238 0 0 0-1.225 1.048l-1.65 10.469-.049.305a1.413 1.413 0 0 1 1.396-1.197h2.908c5.711 0 10.183-2.32 11.49-9.03.038-.199.07-.391.1-.58a7.057 7.057 0 0 0-1.368-.546Z" fill="#1F264F"/></svg>
